icons/filled/glass-full.svg

<svg xmlns="http://www.w3.org/2000/svg" width="24" height="24" viewBox="0 0 24 24" fill="currentColor"><path d="M5.004 10.229l-.003 -.186l.001 -.113l.008 -.071l1 -7a1 1 0 0 1 .877 -.853l.113 -.006h10a1 1 0 0 1 .968 .747l.022 .112l1.006 7.05l.004 .091c0 3.226 -2.56 5.564 -6 5.945v4.055h3a1 1 0 0 1 .117 1.993l-.117 .007h-8a1 1 0 0 1 -.117 -1.993l.117 -.007h3v-4.055c-3.358 -.371 -5.878 -2.609 -5.996 -5.716zm11.129 -6.229h-8.267l-.607 4.258a6.001 6.001 0 0 1 5.125 .787l.216 .155a4 4 0 0 0 4.32 .31l-.787 -5.51z"/></svg>

<svg xmlns="http://www.w3.org/2000/svg" width="24" height="24" fill="currentColor"><path d="m5.004 10.229-.003-.186.001-.113.008-.071 1-7a1 1 0 0 1 .877-.853L7 2h10a1 1 0 0 1 .968.747l.022.112 1.006 7.05L19 10c0 3.226-2.56 5.564-6 5.945V20h3a1 1 0 0 1 .117 1.993L16 22H8a1 1 0 0 1-.117-1.993L8 20h3v-4.055c-3.358-.371-5.878-2.609-5.996-5.716M16.133 4H7.866l-.607 4.258a6 6 0 0 1 5.125.787l.216.155a4 4 0 0 0 4.32.31z"/></svg>
